X:1
T: The Banks of Lough Gowna
C:
R:Jig
Q:180
K:Am
M:6/8
L:1/16
A2B2A2 A2G2E2|E2D2E2 G6|A2B2A2 A2G2E2|c4d2 e2c2A2|A2B2A2 A2G2E2|E2D2E2 G6|c2d2e2 g2e2d2|c2A2A2 A6|
A2B2A2 A2G2E2|E2D2E2 G6|A2B2A2 A2G2E2|c4d2 e2c2A2|A2B2A2 A2G2E2|E2D2E2 G6|c2d2e2 g2e2d2|c2A2A2 A6|
c2d2e2 g4a2|g2e2a2 g2e2d2|c2d2e2 g4a2|g2e2g2 a6|c2d2e2 g4a2|g2e2a2 g2e2d2|c2d2e2 f2e2d2|e2c2A2 A6|
c2d2e2 g4a2|g2e2a2 g2e2d2|c2d2e2 g4a2|g2e2g2 a6|c2d2e2 g4a2|g2e2a2 g2e2d2|c2d2e2 f2e2d2|e2c2A2 A6||
